vs/editor/contrib/documentSymbols/media/Interface_16x_darkp.svg

<svg xmlns="http://www.w3.org/2000/svg" viewBox="0 0 16 16" enable-background="new 0 0 16 16"><style type="text/css">.icon-canvas-transparent{opacity:0;fill:#F6F6F6;} .icon-vs-out{fill:#F6F6F6;} .icon-vs-fg{fill:#F0EFF1;} .icon-vs-action-blue{fill:#00539C;}</style><path class="icon-canvas-transparent" d="M16 16h-16v-16h16v16z" id="canvas"/><path class="icon-vs-out" d="M11.5 12c-1.915 0-3.602-1.241-4.228-3h-1.41c-.536.985-1.572 1.625-2.737 1.625-1.723 0-3.125-1.402-3.125-3.125s1.402-3.125 3.125-3.125c1.165 0 2.201.639 2.737 1.625h1.41c.626-1.759 2.313-3 4.228-3 2.481 0 4.5 2.019 4.5 4.5s-2.019 4.5-4.5 4.5z" id="outline"/><path class="icon-vs-fg" d="M11.5 9c-.827 0-1.5-.674-1.5-1.5 0-.828.673-1.5 1.5-1.5s1.5.672 1.5 1.5c0 .826-.673 1.5-1.5 1.5z" id="iconFg"/><path class="icon-vs-action-blue" d="M11.5 4c-1.762 0-3.205 1.306-3.45 3h-2.865c-.226-.931-1.059-1.625-2.06-1.625-1.174 0-2.125.951-2.125 2.125s.951 2.125 2.125 2.125c1 0 1.834-.694 2.06-1.625h2.865c.245 1.694 1.688 3 3.45 3 1.933 0 3.5-1.567 3.5-3.5s-1.567-3.5-3.5-3.5zm0 5c-.827 0-1.5-.673-1.5-1.5s.673-1.5 1.5-1.5 1.5.673 1.5 1.5-.673 1.5-1.5 1.5z" id="iconBg"/></svg>

<svg xmlns="http://www.w3.org/2000/svg" viewBox="0 0 16 16"><style>.icon-canvas-transparent{opacity:0;fill:#2d2d30}.icon-vs-out{fill:#2d2d30}.icon-vs-fg{fill:#2b282e}.icon-vs-action-blue{fill:#75beff}</style><path class="icon-canvas-transparent" d="M16 16H0V0h16v16z" id="canvas"/><path class="icon-vs-out" d="M11.5 12c-1.915 0-3.602-1.241-4.228-3h-1.41a3.11 3.11 0 0 1-2.737 1.625C1.402 10.625 0 9.223 0 7.5s1.402-3.125 3.125-3.125c1.165 0 2.201.639 2.737 1.625h1.41c.626-1.759 2.313-3 4.228-3C13.981 3 16 5.019 16 7.5S13.981 12 11.5 12z" id="outline"/><path class="icon-vs-fg" d="M11.5 9A1.501 1.501 0 1 1 13 7.5c0 .826-.673 1.5-1.5 1.5z" id="iconFg"/><path class="icon-vs-action-blue" d="M11.5 4a3.49 3.49 0 0 0-3.45 3H5.185A2.122 2.122 0 0 0 1 7.5a2.123 2.123 0 1 0 4.185.5H8.05a3.49 3.49 0 0 0 3.45 3 3.5 3.5 0 1 0 0-7zm0 5c-.827 0-1.5-.673-1.5-1.5S10.673 6 11.5 6s1.5.673 1.5 1.5S12.327 9 11.5 9z" id="iconBg"/></svg>
